src/assets/media/svg/sprite/open mail.svg

<svg width="24" height="24" viewBox="0 0 24 24"  xmlns="http://www.w3.org/2000/svg">
<path d="M0.75 11.4V22.1625L7.05 15.825L0.75 11.4ZM16.95 15.825L23.25 22.1625V11.5125L16.95 15.825Z" />
<path d="M15.8625 14.775L22.725 10.05L12 1.05L1.34998 9.975L8.13748 14.775C9.93748 13.0875 14.1 13.0875 15.8625 14.775Z" />
<path d="M9.11255 15.8625L1.80005 23.25H22.2L14.8875 15.8625C13.6875 14.7 10.3125 14.7 9.11255 15.8625Z" />
</svg>

<svg xmlns="http://www.w3.org/2000/svg" width="24" height="24"><path d="M.75 11.4v10.763l6.3-6.338zm16.2 4.425 6.3 6.338v-10.65zm-1.087-1.05 6.862-4.725L12 1.05 1.35 9.975l6.787 4.8c1.8-1.687 5.963-1.687 7.726 0"/><path d="M9.113 15.863 1.8 23.25h20.4l-7.312-7.387c-1.2-1.163-4.575-1.163-5.775 0"/></svg>
